pix_core/e/text_color.svg

<svg fill="none" preserveAspectRatio="xMinYMid meet" viewBox="0 0 14 16" xmlns="http://www.w3.org/2000/svg"><g fill="#fff"><path clip-rule="evenodd" d="m7.90023.567807c-.1673-.344425-.51659-.56307678-.8995-.56307678s-.73219.21865178-.8995.56307678l-4.75175 9.782493c-.24131.4968-.03421 1.0951.46257 1.3364s1.09512.0342 1.33642-.4625l.8128-1.67336h6.07893l.8128 1.67336c.2413.4967.8396.7038 1.3364.4625s.7039-.8396.4626-1.3364zm-.8995 2.725653 2.06799 4.25738h-4.13597z" fill-rule="evenodd"/><path d="m.012207 14.57c0-.3866.313401-.7.7-.7h12.576893c.3866 0 .7.3134.7.7v.7315c0 .3866-.3134.7-.7.7h-12.576893c-.386599 0-.7-.3134-.7-.7z"/></g></svg>

<svg viewBox="0 0 14 16" fill="none" xmlns="http://www.w3.org/2000/svg" preserveAspectRatio="xMinYMid meet">
<path fill-rule="evenodd" clip-rule="evenodd" d="M7.90023 0.567807C7.73293 0.223382 7.38364 0.00473022 7.00073 0.00473022C6.61782 0.00473022 6.26854 0.223382 6.10123 0.567807L1.34948 10.3503C1.10817 10.8471 1.31527 11.4454 1.81205 11.6867C2.30883 11.928 2.90717 11.7209 3.14847 11.2242L3.96127 9.55084H10.0402L10.853 11.2242C11.0943 11.7209 11.6926 11.928 12.1894 11.6867C12.6862 11.4454 12.8933 10.8471 12.652 10.3503L7.90023 0.567807ZM7.00073 3.29346L9.06872 7.55084H4.93275L7.00073 3.29346Z" fill="#fff"/>
<path d="M0.012207 14.57C0.012207 14.1834 0.325608 13.87 0.712207 13.87H13.2891C13.6757 13.87 13.9891 14.1834 13.9891 14.57V15.3015C13.9891 15.6881 13.6757 16.0015 13.2891 16.0015H0.712207C0.325608 16.0015 0.012207 15.6881 0.012207 15.3015V14.57Z" fill="#fff"/>
</svg>
